packages/foundations/assets/icons/functional/images/technology/qr_code_28.svg

<svg width="28" height="28" viewBox="0 0 28 28" fill="none" xmlns="http://www.w3.org/2000/svg">
<g clip-path="url(#clip0_187_617)">
<path fill-rule="evenodd" clip-rule="evenodd" d="M10.5547 14.875C11.9766 14.875 13.125 16.0508 13.125 17.4727V22.8047C13.125 24.2266 11.9766 25.375 10.5547 25.375H5.22266C3.80078 25.375 2.625 24.2266 2.625 22.8047V17.4727C2.65234 16.0508 3.80078 14.875 5.22266 14.875H10.5547ZM10.5547 16.625H5.22266C4.75781 16.625 4.375 17.0078 4.375 17.4727V22.7773C4.375 23.2422 4.75781 23.625 5.22266 23.625H10.5547C11.0195 23.625 11.375 23.2422 11.375 22.7773V17.4727C11.375 17.0078 11.0195 16.625 10.5547 16.625ZM10.5547 2.625C11.9835 2.625 13.125 3.79275 13.125 5.22266V10.5547C13.125 11.9766 11.9766 13.125 10.5547 13.125H5.19531C3.77344 13.125 2.625 11.9766 2.625 10.5547V5.22266C2.625 3.80078 3.77344 2.625 5.19531 2.625H10.5547ZM10.5547 4.375H5.22266C4.75781 4.375 4.375 4.75781 4.375 5.22266V10.5547C4.375 11.0195 4.75781 11.375 5.22266 11.4023H10.5547C11.0195 11.375 11.375 11.0195 11.375 10.5547V5.22266C11.375 4.75781 11.0195 4.40234 10.5547 4.375ZM19.25 14.875C20.125 14.875 21 15.75 21 16.625V19.25H23.625C24.5 19.25 25.375 19.7969 25.375 21V23.625C25.375 24.5 24.5 25.375 23.625 25.375H21C20.125 25.375 19.25 24.5 19.25 23.625V21H16.625C15.75 21 14.875 20.125 14.875 19.25V16.625C14.875 15.75 15.75 14.875 16.625 14.875H19.25ZM23.1875 21H21.4375C21.2188 21 21 21.1914 21 21.4375V23.2969C21 23.5156 21.1914 23.6797 21.3828 23.6797H23.2695C23.4609 23.6797 23.625 23.5156 23.625 23.2969V21.4375C23.625 21.2188 23.4062 21 23.1875 21ZM18.8945 16.625H17.0078C16.8164 16.625 16.625 16.8164 16.625 17.0078V18.8672C16.625 19.0859 16.8164 19.25 17.0078 19.25H18.8125C19.0586 19.25 19.25 19.0586 19.25 18.8125V17.0078C19.25 16.8164 19.0859 16.625 18.8945 16.625ZM22.8047 2.625C24.2266 2.625 25.375 3.80078 25.375 5.22266V10.5547C25.375 11.9766 24.2266 13.125 22.8047 13.125H17.4727C16.0508 13.125 14.875 11.9766 14.875 10.5547V5.22266C14.875 3.80078 16.0508 2.625 17.4727 2.625H22.8047ZM22.8047 4.375H17.4727C17.0078 4.375 16.625 4.75781 16.625 5.22266V10.5547C16.625 11.0195 17.0078 11.375 17.4727 11.4023H22.8047C23.2695 11.375 23.625 11.0195 23.625 10.5547V5.22266C23.625 4.75781 23.2695 4.40234 22.8047 4.375ZM6.125 21V19.25C6.125 18.7852 6.53516 18.375 7 18.375H8.75C9.24219 18.375 9.625 18.7852 9.625 19.25V21C9.625 21.4922 9.24219 21.875 8.75 21.875H7C6.53516 21.875 6.125 21.4922 6.125 21ZM6.125 8.75V7C6.125 6.53516 6.53516 6.125 7 6.125H8.75C9.24219 6.125 9.625 6.53516 9.625 7V8.75C9.625 9.24219 9.24219 9.625 8.75 9.625H7C6.53516 9.625 6.125 9.24219 6.125 8.75ZM18.375 8.75V7C18.375 6.53516 18.7852 6.125 19.25 6.125H21C21.4922 6.125 21.875 6.53516 21.875 7V8.75C21.875 9.24219 21.4922 9.625 21 9.625H19.25C18.7852 9.625 18.375 9.24219 18.375 8.75Z" fill="#1A1C1F"/>
</g>
<defs>
<clipPath id="clip0_187_617">
<rect width="28" height="28" fill="white"/>
</clipPath>
</defs>
</svg>

<svg xmlns="http://www.w3.org/2000/svg" width="28" height="28" fill="none"><g clip-path="url(#a)"><path fill="#1A1C1F" fill-rule="evenodd" d="M10.555 14.875c1.422 0 2.57 1.176 2.57 2.598v5.332a2.567 2.567 0 0 1-2.57 2.57H5.223c-1.422 0-2.598-1.148-2.598-2.57v-5.332c.027-1.422 1.176-2.598 2.598-2.598zm0 1.75H5.223a.85.85 0 0 0-.848.848v5.304c0 .465.383.848.848.848h5.332c.465 0 .82-.383.82-.848v-5.304c0-.465-.355-.848-.82-.848m0-14c1.428 0 2.57 1.168 2.57 2.598v5.332a2.567 2.567 0 0 1-2.57 2.57h-5.36a2.567 2.567 0 0 1-2.57-2.57V5.223c0-1.422 1.148-2.598 2.57-2.598zm0 1.75H5.223a.85.85 0 0 0-.848.848v5.332c0 .465.383.82.848.847h5.332c.465-.027.82-.382.82-.847V5.223c0-.465-.355-.82-.82-.848m8.695 10.5c.875 0 1.75.875 1.75 1.75v2.625h2.625c.875 0 1.75.547 1.75 1.75v2.625c0 .875-.875 1.75-1.75 1.75H21c-.875 0-1.75-.875-1.75-1.75V21h-2.625c-.875 0-1.75-.875-1.75-1.75v-2.625c0-.875.875-1.75 1.75-1.75zM23.188 21h-1.75a.45.45 0 0 0-.438.438v1.859c0 .219.191.383.383.383h1.887c.19 0 .355-.164.355-.383v-1.86a.47.47 0 0 0-.437-.437m-4.293-4.375h-1.887a.41.41 0 0 0-.383.383v1.86c0 .218.191.382.383.382h1.805a.43.43 0 0 0 .437-.437v-1.805c0-.192-.164-.383-.355-.383m3.91-14c1.422 0 2.57 1.176 2.57 2.598v5.332a2.567 2.567 0 0 1-2.57 2.57h-5.332c-1.422 0-2.598-1.148-2.598-2.57V5.223a2.614 2.614 0 0 1 2.598-2.598zm0 1.75h-5.332a.85.85 0 0 0-.848.848v5.332c0 .465.383.82.848.847h5.332c.465-.027.82-.382.82-.847V5.223c0-.465-.355-.82-.82-.848M6.125 21v-1.75A.9.9 0 0 1 7 18.375h1.75c.492 0 .875.41.875.875V21a.864.864 0 0 1-.875.875H7A.88.88 0 0 1 6.125 21m0-12.25V7A.9.9 0 0 1 7 6.125h1.75c.492 0 .875.41.875.875v1.75a.864.864 0 0 1-.875.875H7a.88.88 0 0 1-.875-.875m12.25 0V7a.9.9 0 0 1 .875-.875H21c.492 0 .875.41.875.875v1.75a.864.864 0 0 1-.875.875h-1.75a.88.88 0 0 1-.875-.875" clip-rule="evenodd"/></g><defs><clipPath id="a"><path fill="#fff" d="M0 0h28v28H0z"/></clipPath></defs></svg>
